localPackages/DesignSystem/Sources/DesignSystem/Resources/Assets.xcassets/IconSet/ic-tags.imageset/ic-tags.svg

<svg width="24" height="24" viewBox="0 0 24 24" fill="none" xmlns="http://www.w3.org/2000/svg">
<g id="ic-tags">
<path id="Icon" fill-rule="evenodd" clip-rule="evenodd" d="M20.7272 11.3191L14.3804 17.6272L6.00083 9.29887L6.00082 2.99083L12.3477 2.99082L20.7272 11.3191ZM15.441 18.6813C14.8552 19.2635 13.9055 19.2635 13.3197 18.6813L4.94016 10.353C4.65886 10.0735 4.50083 9.69426 4.50083 9.29887L4.50082 2.99082C4.50083 2.16747 5.1724 1.5 6.00082 1.5H12.3477C12.7455 1.5 13.127 1.65707 13.4083 1.93665L21.7879 10.2649C22.3737 10.8471 22.3737 11.7911 21.7879 12.3733L15.441 18.6813ZM10.5 5.97303C10.5 6.79639 9.82843 7.46386 9 7.46386C8.17157 7.46386 7.5 6.79639 7.5 5.97303C7.5 5.14967 8.17157 4.48221 9 4.48221C9.82843 4.48221 10.5 5.14967 10.5 5.97303ZM5.78033 12.9001C5.48744 12.609 5.01256 12.609 4.71967 12.9001C4.42678 13.1912 4.42678 13.6631 4.71967 13.9542L12.659 21.845C13.5377 22.7183 14.9623 22.7183 15.841 21.845L22.2803 15.4451C22.5732 15.154 22.5732 14.682 22.2803 14.3909C21.9874 14.0998 21.5126 14.0998 21.2197 14.3909L14.7803 20.7908C14.4874 21.0819 14.0126 21.0819 13.7197 20.7908L5.78033 12.9001Z" fill="#0F0F0F"/>
</g>
</svg>

<svg xmlns="http://www.w3.org/2000/svg" width="24" height="24" viewBox="0 0 24 24">
  <g class="ic-tags">
    <path fill-rule="evenodd" d="m20.727 11.32-6.347 6.307L6 9.3V2.99h6.348l8.38 8.328Zm-5.286 7.361a1.507 1.507 0 0 1-2.121 0l-8.38-8.328a1.486 1.486 0 0 1-.44-1.054V2.99c0-.823.673-1.49 1.5-1.49h6.348c.397 0 .779.157 1.06.437l8.38 8.328a1.484 1.484 0 0 1 0 2.108l-6.347 6.308ZM10.5 5.973c0 .823-.672 1.49-1.5 1.49s-1.5-.667-1.5-1.49.672-1.49 1.5-1.49 1.5.667 1.5 1.49ZM5.78 12.9a.753.753 0 0 0-1.06 0 .742.742 0 0 0 0 1.054l7.939 7.891a2.26 2.26 0 0 0 3.182 0l6.44-6.4a.742.742 0 0 0 0-1.054.753.753 0 0 0-1.061 0l-6.44 6.4a.753.753 0 0 1-1.06 0L5.78 12.9Z" class="Icon"/>
  </g>
</svg>
